X: 123
T: Er guniang liaobing
%%abc-version 2.0
%%abcx-abcm2ps-target-version 5.9.1 (29 Sep 2008)
%%abc-creator hum2abc beta
%%abcx-conversion-date 2013/10/02 07:52:29
%%abc-edited-by Helmut Schaffrath
%%humdrum-veritas 1718031793
%%humdrum-veritas-data 2382161924
%%continueall 1
%%barnumbers 0
L: 1/8
M: 2/4
K: F
d2d2 [I:setbarnb 1]| 
f2f d | 
c Ac2 | 
A c A c | 
d d d f | 
f d c A | 
AG2F | 
G4 | 
d2d2 | 
f2f d | 
c Ac2 | 
A c A c | 
d d d f | 
f d c A | 
AG2F | 
G4 | 
G2c A | 
G3c | 
A G F A | 
G4 | 
G2c A | 
G3c | 
A G F A | 
G4 | 
G2c2 | 
A c A G | 
c3D | 
F2F2 | 
G2c2 | 
G c G F | 
D2G2 | 
G2E D | 
C3D | 
C4 |]  



